docs/standards/CX-0084-FederatedQueriesInDataSpaces/assets/sparql_profiles.drawio.svg

<svg xmlns="http://www.w3.org/2000/svg" xmlns:xlink="http://www.w3.org/1999/xlink" width="571" height="342" style="background-color:#fff" viewBox="-0.5 -0.5 571 342"><path fill="none" stroke="#000" stroke-miterlimit="10" d="M360 225h93.63" pointer-events="stroke"/><path stroke="#000" stroke-miterlimit="10" d="m458.88 225-7 3.5 1.75-3.5-1.75-3.5Z" pointer-events="all"/><switch transform="translate(-.5 -.5)"><foreignObject width="100%" height="100%" pointer-events="none" requiredFeatures="http://www.w3.org/TR/SVG11/feature#Extensibility" style="overflow:visible;text-align:left"><div xmlns="http://www.w3.org/1999/xhtml" style="display:flex;align-items:unsafe center;justify-content:unsafe center;width:1px;height:1px;padding-top:225px;margin-left:410px"><div data-drawio-colors="color: rgb(0, 0, 0); background-color: rgb(255, 255, 255);" style="box-sizing:border-box;font-size:0;text-align:center"><div style="display:inline-block;font-size:11px;font-family:Helvetica;color:#000;line-height:1.2;pointer-events:all;background-color:#fff;white-space:nowrap">KA-BIND<br/></div></div></div></foreignObject><text x="410" y="228" font-family="Helvetica" font-size="11" text-anchor="middle">KA-BIND
</text></switch><path fill="none" stroke="#000" stroke-miterlimit="10" d="M223.63 225H116.37" pointer-events="stroke"/><path stroke="#000" stroke-miterlimit="10" d="m228.88 225-7 3.5 1.75-3.5-1.75-3.5Zm-117.76 0 7-3.5-1.75 3.5 1.75 3.5Z" pointer-events="all"/><switch transform="translate(-.5 -.5)"><foreignObject width="100%" height="100%" pointer-events="none" requiredFeatures="http://www.w3.org/TR/SVG11/feature#Extensibility" style="overflow:visible;text-align:left"><div xmlns="http://www.w3.org/1999/xhtml" style="display:flex;align-items:unsafe center;justify-content:unsafe center;width:1px;height:1px;padding-top:225px;margin-left:170px"><div data-drawio-colors="color: rgb(0, 0, 0); background-color: rgb(255, 255, 255);" style="box-sizing:border-box;font-size:0;text-align:center"><div style="display:inline-block;font-size:11px;font-family:Helvetica;color:#000;line-height:1.2;pointer-events:all;background-color:#fff;white-space:nowrap">KA-TRANSFER</div></div></div></foreignObject><text x="170" y="228" font-family="Helvetica" font-size="11" text-anchor="middle">KA-TRANSFER</text></switch><path fill="#FFF" stroke="#000" d="M230 200h130v50H230z" pointer-events="all"/><switch transform="translate(-.5 -.5)"><foreignObject width="100%" height="100%" pointer-events="none" requiredFeatures="http://www.w3.org/TR/SVG11/feature#Extensibility" style="overflow:visible;text-align:left"><div xmlns="http://www.w3.org/1999/xhtml" style="display:flex;align-items:unsafe center;justify-content:unsafe center;width:1px;height:1px;padding-top:225px;margin-left:295px"><div data-drawio-colors="color: rgb(0, 0, 0);" style="box-sizing:border-box;font-size:0;text-align:center"><div style="display:inline-block;font-size:12px;font-family:Helvetica;color:#000;line-height:1.2;pointer-events:all;white-space:nowrap">«interface»<br/><b>Matchmaking Agent</b></div></div></div></foreignObject><text x="295" y="229" font-family="Helvetica" font-size="12" text-anchor="middle">«interface»...</text></switch><path fill="#FFF" stroke="#000" d="M0 200h110v50H0z" pointer-events="all"/><switch transform="translate(-.5 -.5)"><foreignObject width="100%" height="100%" pointer-events="none" requiredFeatures="http://www.w3.org/TR/SVG11/feature#Extensibility" style="overflow:visible;text-align:left"><div xmlns="http://www.w3.org/1999/xhtml" style="display:flex;align-items:unsafe center;justify-content:unsafe center;width:1px;height:1px;padding-top:225px;margin-left:55px"><div data-drawio-colors="color: rgb(0, 0, 0);" style="box-sizing:border-box;font-size:0;text-align:center"><div style="display:inline-block;font-size:12px;font-family:Helvetica;color:#000;line-height:1.2;pointer-events:all;white-space:nowrap">«interface»<br/><b>Eclipse Dataspace<br/>Connector</b></div></div></div></foreignObject><text x="55" y="229" font-family="Helvetica" font-size="12" text-anchor="middle">«interface»...</text></switch><path fill="#FFF" stroke="#000" d="M460 200h110v50H460z" pointer-events="all"/><switch transform="translate(-.5 -.5)"><foreignObject width="100%" height="100%" pointer-events="none" requiredFeatures="http://www.w3.org/TR/SVG11/feature#Extensibility" style="overflow:visible;text-align:left"><div xmlns="http://www.w3.org/1999/xhtml" style="display:flex;align-items:unsafe center;justify-content:unsafe center;width:1px;height:1px;padding-top:225px;margin-left:515px"><div data-drawio-colors="color: rgb(0, 0, 0);" style="box-sizing:border-box;font-size:0;text-align:center"><div style="display:inline-block;font-size:12px;font-family:Helvetica;color:#000;line-height:1.2;pointer-events:all;white-space:nowrap">«interface»<br/><b>Binding Agent</b></div></div></div></foreignObject><text x="515" y="229" font-family="Helvetica" font-size="12" text-anchor="middle">«interface»...</text></switch><path fill="none" stroke="#000" stroke-miterlimit="10" d="M295 60v133.63" pointer-events="stroke"/><path stroke="#000" stroke-miterlimit="10" d="m295 198.88-3.5-7 3.5 1.75 3.5-1.75Z" pointer-events="all"/><switch transform="translate(-.5 -.5)"><foreignObject width="100%" height="100%" pointer-events="none" requiredFeatures="http://www.w3.org/TR/SVG11/feature#Extensibility" style="overflow:visible;text-align:left"><div xmlns="http://www.w3.org/1999/xhtml" style="display:flex;align-items:unsafe center;justify-content:unsafe center;width:1px;height:1px;padding-top:130px;margin-left:295px"><div data-drawio-colors="color: rgb(0, 0, 0); background-color: rgb(255, 255, 255);" style="box-sizing:border-box;font-size:0;text-align:center"><div style="display:inline-block;font-size:11px;font-family:Helvetica;color:#000;line-height:1.2;pointer-events:all;background-color:#fff;white-space:nowrap">KA-MATCH</div></div></div></foreignObject><text x="295" y="133" font-family="Helvetica" font-size="11" text-anchor="middle">KA-MATCH</text></switch><circle cx="295" cy="7.5" r="7.5" fill="#FFF" stroke="#000" pointer-events="all"/><path fill="none" stroke="#000" stroke-miterlimit="10" d="M295 15v25m0-20h-15m15 0h15m-15 20-15 20m15-20 15 20" pointer-events="all"/><switch transform="translate(-.5 -.5)"><foreignObject width="100%" height="100%" pointer-events="none" requiredFeatures="http://www.w3.org/TR/SVG11/feature#Extensibility" style="overflow:visible;text-align:left"><div xmlns="http://www.w3.org/1999/xhtml" style="display:flex;align-items:unsafe flex-start;justify-content:unsafe center;width:1px;height:1px;padding-top:67px;margin-left:295px"><div data-drawio-colors="color: rgb(0, 0, 0);" style="box-sizing:border-box;font-size:0;text-align:center"><div style="display:inline-block;font-size:12px;font-family:Helvetica;color:#000;line-height:1.2;pointer-events:all;white-space:nowrap">User / Application</div></div></div></foreignObject><text x="295" y="79" font-family="Helvetica" font-size="12" text-anchor="middle">User...</text></switch><path fill="#FFF" stroke="#000" d="M460 270h110v70H460z" pointer-events="all"/><switch transform="translate(-.5 -.5)"><foreignObject width="100%" height="100%" pointer-events="none" requiredFeatures="http://www.w3.org/TR/SVG11/feature#Extensibility" style="overflow:visible;text-align:left"><div xmlns="http://www.w3.org/1999/xhtml" style="display:flex;align-items:unsafe center;justify-content:unsafe center;width:1px;height:1px;padding-top:305px;margin-left:515px"><div data-drawio-colors="color: rgb(0, 0, 0);" style="box-sizing:border-box;font-size:0;text-align:center"><div style="display:inline-block;font-size:12px;font-family:Helvetica;color:#000;line-height:1.2;pointer-events:all;white-space:nowrap">«interface»<br/><b>Remoting<br/></b><b style="border-color:var(--border-color)">(Function Binding)</b><b><br/>Agent<br/><br/></b></div></div></div></foreignObject><text x="515" y="309" font-family="Helvetica" font-size="12" text-anchor="middle">«interface»...</text></switch><path fill="none" stroke="#000" stroke-miterlimit="10" d="M515 270v-13.63" pointer-events="stroke"/><path stroke="#000" stroke-miterlimit="10" d="m515 251.12 3.5 7-3.5-1.75-3.5 1.75Z" pointer-events="all"/><path fill="none" stroke="#000" stroke-miterlimit="10" d="M360 237.5h45V305h48.63" pointer-events="stroke"/><path stroke="#000" stroke-miterlimit="10" d="m458.88 305-7 3.5 1.75-3.5-1.75-3.5Z" pointer-events="all"/><switch transform="translate(-.5 -.5)"><foreignObject width="100%" height="100%" pointer-events="none" requiredFeatures="http://www.w3.org/TR/SVG11/feature#Extensibility" style="overflow:visible;text-align:left"><div xmlns="http://www.w3.org/1999/xhtml" style="display:flex;align-items:unsafe center;justify-content:unsafe center;width:1px;height:1px;padding-top:320px;margin-left:401px"><div data-drawio-colors="color: rgb(0, 0, 0); background-color: rgb(255, 255, 255);" style="box-sizing:border-box;font-size:0;text-align:center"><div style="display:inline-block;font-size:11px;font-family:Helvetica;color:#000;line-height:1.2;pointer-events:all;background-color:#fff;white-space:nowrap">KA-BIND-F</div></div></div></foreignObject><text x="401" y="323" font-family="Helvetica" font-size="11" text-anchor="middle">KA-BIND-F</text></switch><switch><g requiredFeatures="http://www.w3.org/TR/SVG11/feature#Extensibility"/><a xlink:href="https://www.drawio.com/doc/faq/svg-export-text-problems" target="_blank" transform="translate(0 -5)"><text x="50%" y="100%" font-size="10" text-anchor="middle">Text is not SVG - cannot display</text></a></switch></svg>

<?xml version="1.0" encoding="UTF-8"?>
<!-- Do not edit this file with editors other than draw.io -->
<!DOCTYPE svg PUBLIC "-//W3C//DTD SVG 1.1//EN" "http://www.w3.org/Graphics/SVG/1.1/DTD/svg11.dtd">
<svg xmlns="http://www.w3.org/2000/svg" xmlns:xlink="http://www.w3.org/1999/xlink" version="1.1" width="571px" height="342px" viewBox="-0.5 -0.5 571 342" content="&lt;mxfile host=&quot;app.diagrams.net&quot; modified=&quot;2023-06-30T10:31:05.858Z&quot; agent=&quot;Mozilla/5.0 (Macintosh; Intel Mac OS X 10_15_7) AppleWebKit/537.36 (KHTML, like Gecko) Chrome/112.0.0.0 Safari/537.36&quot; etag=&quot;6OObX17CWM1gydzwrKWn&quot; version=&quot;21.5.2&quot; type=&quot;device&quot;&gt;&lt;diagram name=&quot;Seite-1&quot; id=&quot;e94xtmsNPZZym2MxQetC&quot;&gt;zVhbV+IwEP41nOM+4KGEgj6Wm+6ucFzwxr6FNrTZTZuaBiz++k3alN6gIouiL3a+TCaZmS+TCTXQc8MrBn1nRC1Eas2GFdZAv9YUf21N/JPIOkYuQCsGbIatGNJSYIpfkQIbCl1iCwU5RU4p4djPgyb1PGTyHAYZoy95tQUl+VV9aKMSMDUhKaOP2OKO8qLZSfFrhG0nWVlrX8YjLkyUlSeBAy36koHAoAZ6jFIef7lhDxEZvCQu8bzhjtHNxhjy+D4TpmHrR//h19P9/LW3GM8ehuDeqysrK0iWyuGfRr37fSy+2kSY7c6Z+LLll/KCr5PQIEtESomUcYfa1INkkKJdRpeeheT6DSGlOjeU+gLUBPgHcb5WaYdLTgXkcJeoUeEaWz+p+ZEwk8K5noj9MDvYXyupHBvlaECXzEQVAQGKY5DZiFfo6bGejEFmARX5K0RdJPYjFBgikONVnk1QkdLe6KV5Ex8qde9IY3NbGu8mxng6HExOmjjtfYkLROC5Ic+tAEwCgwCbCTzEJDH/8fltfan8glJ+a71mzehijyO2gMJjIXa72w6tQhJgBLnpuPAv9mxh0LBlAJWO2Nl852HP5HZn8FeIcRRWhiu5F1RNVJdCs6Pkl7TEakBhTqa86o0PCnDraAEemETcTUgY60MOA1/Ole4WJ/biC4uyE4S/vrleqxKgfWYC9KMlQEyxTsxu/atFt73tfhgZd73rU1wOh1fvzp7VG3yp6t0pRf8+QCyqCkNJU98n2BT7oF4pG6Jp9OXn0iVGVCxAV/JQqJMbOEfklgY4mgj6c8o5dTMKBsG2HOAyLXvFf3+Kd/IM30LwbeW7fQR+PzcHo9nYxYvfdPD8uJoMkBVuaWMPrR4T5FIelY82dGXcvHngZxVLU/OFZWMuk8X285JGKGUWYnWTEplII9owO6vXs/i32Iqakdg9Gy49MyZIQ9W3b2+sXwA2206K4p7eveXvpxZS0NqzkHY+imjlRrtcQD2r3MBm4pIvnyjE/CltjYU0y4ykXbIUkiY5fRWl/fQs22v/z6uo6nwd7VWUyZ9ecQ/uXZ7VCrcUS25v2hyt0GeCYgGKHVfTsm/noqVCvQNawVAcmZKhiGMbvw+nXbn/V8/0+vAUF/ihz/KE7FqW6ucdvZLth3cLW956Vex+k7WKDI1z0AIgx4e61j4KY7ViwWvohxF2c9XuMrSDsKJywXVGzZcKQcWGL/XCOheV+yrpd/TCeYl3sOMY6oWo532ii0WA3nn+hJj+BBerpz9kgsE/&lt;/diagram&gt;&lt;/mxfile&gt;" style="background-color: rgb(255, 255, 255);"><defs/><g><path d="M 360 225 L 453.63 225" fill="none" stroke="rgb(0, 0, 0)" stroke-miterlimit="10" pointer-events="stroke"/><path d="M 458.88 225 L 451.88 228.5 L 453.63 225 L 451.88 221.5 Z" fill="rgb(0, 0, 0)" stroke="rgb(0, 0, 0)" stroke-miterlimit="10" pointer-events="all"/><g transform="translate(-0.5 -0.5)"><switch><foreignObject pointer-events="none" width="100%" height="100%" requiredFeatures="http://www.w3.org/TR/SVG11/feature#Extensibility" style="overflow: visible; text-align: left;"><div xmlns="http://www.w3.org/1999/xhtml" style="display: flex; align-items: unsafe center; justify-content: unsafe center; width: 1px; height: 1px; padding-top: 225px; margin-left: 410px;"><div data-drawio-colors="color: rgb(0, 0, 0); background-color: rgb(255, 255, 255); " style="box-sizing: border-box; font-size: 0px; text-align: center;"><div style="display: inline-block; font-size: 11px; font-family: Helvetica; color: rgb(0, 0, 0); line-height: 1.2; pointer-events: all; background-color: rgb(255, 255, 255); white-space: nowrap;">KA-BIND<br /></div></div></div></foreignObject><text x="410" y="228" fill="rgb(0, 0, 0)" font-family="Helvetica" font-size="11px" text-anchor="middle">KA-BIND&#xa;</text></switch></g><path d="M 223.63 225 L 116.37 225" fill="none" stroke="rgb(0, 0, 0)" stroke-miterlimit="10" pointer-events="stroke"/><path d="M 228.88 225 L 221.88 228.5 L 223.63 225 L 221.88 221.5 Z" fill="rgb(0, 0, 0)" stroke="rgb(0, 0, 0)" stroke-miterlimit="10" pointer-events="all"/><path d="M 111.12 225 L 118.12 221.5 L 116.37 225 L 118.12 228.5 Z" fill="rgb(0, 0, 0)" stroke="rgb(0, 0, 0)" stroke-miterlimit="10" pointer-events="all"/><g transform="translate(-0.5 -0.5)"><switch><foreignObject pointer-events="none" width="100%" height="100%" requiredFeatures="http://www.w3.org/TR/SVG11/feature#Extensibility" style="overflow: visible; text-align: left;"><div xmlns="http://www.w3.org/1999/xhtml" style="display: flex; align-items: unsafe center; justify-content: unsafe center; width: 1px; height: 1px; padding-top: 225px; margin-left: 170px;"><div data-drawio-colors="color: rgb(0, 0, 0); background-color: rgb(255, 255, 255); " style="box-sizing: border-box; font-size: 0px; text-align: center;"><div style="display: inline-block; font-size: 11px; font-family: Helvetica; color: rgb(0, 0, 0); line-height: 1.2; pointer-events: all; background-color: rgb(255, 255, 255); white-space: nowrap;">KA-TRANSFER</div></div></div></foreignObject><text x="170" y="228" fill="rgb(0, 0, 0)" font-family="Helvetica" font-size="11px" text-anchor="middle">KA-TRANSFER</text></switch></g><rect x="230" y="200" width="130" height="50" fill="rgb(255, 255, 255)" stroke="rgb(0, 0, 0)" pointer-events="all"/><g transform="translate(-0.5 -0.5)"><switch><foreignObject pointer-events="none" width="100%" height="100%" requiredFeatures="http://www.w3.org/TR/SVG11/feature#Extensibility" style="overflow: visible; text-align: left;"><div xmlns="http://www.w3.org/1999/xhtml" style="display: flex; align-items: unsafe center; justify-content: unsafe center; width: 1px; height: 1px; padding-top: 225px; margin-left: 295px;"><div data-drawio-colors="color: rgb(0, 0, 0); " style="box-sizing: border-box; font-size: 0px; text-align: center;"><div style="display: inline-block; font-size: 12px; font-family: Helvetica; color: rgb(0, 0, 0); line-height: 1.2; pointer-events: all; white-space: nowrap;">«interface»<br /><b>Matchmaking Agent</b></div></div></div></foreignObject><text x="295" y="229" fill="rgb(0, 0, 0)" font-family="Helvetica" font-size="12px" text-anchor="middle">«interface»...</text></switch></g><rect x="0" y="200" width="110" height="50" fill="rgb(255, 255, 255)" stroke="rgb(0, 0, 0)" pointer-events="all"/><g transform="translate(-0.5 -0.5)"><switch><foreignObject pointer-events="none" width="100%" height="100%" requiredFeatures="http://www.w3.org/TR/SVG11/feature#Extensibility" style="overflow: visible; text-align: left;"><div xmlns="http://www.w3.org/1999/xhtml" style="display: flex; align-items: unsafe center; justify-content: unsafe center; width: 1px; height: 1px; padding-top: 225px; margin-left: 55px;"><div data-drawio-colors="color: rgb(0, 0, 0); " style="box-sizing: border-box; font-size: 0px; text-align: center;"><div style="display: inline-block; font-size: 12px; font-family: Helvetica; color: rgb(0, 0, 0); line-height: 1.2; pointer-events: all; white-space: nowrap;">«interface»<br /><b>Eclipse Dataspace <br />Connector</b></div></div></div></foreignObject><text x="55" y="229" fill="rgb(0, 0, 0)" font-family="Helvetica" font-size="12px" text-anchor="middle">«interface»...</text></switch></g><rect x="460" y="200" width="110" height="50" fill="rgb(255, 255, 255)" stroke="rgb(0, 0, 0)" pointer-events="all"/><g transform="translate(-0.5 -0.5)"><switch><foreignObject pointer-events="none" width="100%" height="100%" requiredFeatures="http://www.w3.org/TR/SVG11/feature#Extensibility" style="overflow: visible; text-align: left;"><div xmlns="http://www.w3.org/1999/xhtml" style="display: flex; align-items: unsafe center; justify-content: unsafe center; width: 1px; height: 1px; padding-top: 225px; margin-left: 515px;"><div data-drawio-colors="color: rgb(0, 0, 0); " style="box-sizing: border-box; font-size: 0px; text-align: center;"><div style="display: inline-block; font-size: 12px; font-family: Helvetica; color: rgb(0, 0, 0); line-height: 1.2; pointer-events: all; white-space: nowrap;">«interface»<br /><b>Binding Agent</b></div></div></div></foreignObject><text x="515" y="229" fill="rgb(0, 0, 0)" font-family="Helvetica" font-size="12px" text-anchor="middle">«interface»...</text></switch></g><path d="M 295 60 L 295 193.63" fill="none" stroke="rgb(0, 0, 0)" stroke-miterlimit="10" pointer-events="stroke"/><path d="M 295 198.88 L 291.5 191.88 L 295 193.63 L 298.5 191.88 Z" fill="rgb(0, 0, 0)" stroke="rgb(0, 0, 0)" stroke-miterlimit="10" pointer-events="all"/><g transform="translate(-0.5 -0.5)"><switch><foreignObject pointer-events="none" width="100%" height="100%" requiredFeatures="http://www.w3.org/TR/SVG11/feature#Extensibility" style="overflow: visible; text-align: left;"><div xmlns="http://www.w3.org/1999/xhtml" style="display: flex; align-items: unsafe center; justify-content: unsafe center; width: 1px; height: 1px; padding-top: 130px; margin-left: 295px;"><div data-drawio-colors="color: rgb(0, 0, 0); background-color: rgb(255, 255, 255); " style="box-sizing: border-box; font-size: 0px; text-align: center;"><div style="display: inline-block; font-size: 11px; font-family: Helvetica; color: rgb(0, 0, 0); line-height: 1.2; pointer-events: all; background-color: rgb(255, 255, 255); white-space: nowrap;">KA-MATCH</div></div></div></foreignObject><text x="295" y="133" fill="rgb(0, 0, 0)" font-family="Helvetica" font-size="11px" text-anchor="middle">KA-MATCH</text></switch></g><ellipse cx="295" cy="7.5" rx="7.5" ry="7.5" fill="rgb(255, 255, 255)" stroke="rgb(0, 0, 0)" pointer-events="all"/><path d="M 295 15 L 295 40 M 295 20 L 280 20 M 295 20 L 310 20 M 295 40 L 280 60 M 295 40 L 310 60" fill="none" stroke="rgb(0, 0, 0)" stroke-miterlimit="10" pointer-events="all"/><g transform="translate(-0.5 -0.5)"><switch><foreignObject pointer-events="none" width="100%" height="100%" requiredFeatures="http://www.w3.org/TR/SVG11/feature#Extensibility" style="overflow: visible; text-align: left;"><div xmlns="http://www.w3.org/1999/xhtml" style="display: flex; align-items: unsafe flex-start; justify-content: unsafe center; width: 1px; height: 1px; padding-top: 67px; margin-left: 295px;"><div data-drawio-colors="color: rgb(0, 0, 0); " style="box-sizing: border-box; font-size: 0px; text-align: center;"><div style="display: inline-block; font-size: 12px; font-family: Helvetica; color: rgb(0, 0, 0); line-height: 1.2; pointer-events: all; white-space: nowrap;">User / Application</div></div></div></foreignObject><text x="295" y="79" fill="rgb(0, 0, 0)" font-family="Helvetica" font-size="12px" text-anchor="middle">User...</text></switch></g><rect x="460" y="270" width="110" height="70" fill="rgb(255, 255, 255)" stroke="rgb(0, 0, 0)" pointer-events="all"/><g transform="translate(-0.5 -0.5)"><switch><foreignObject pointer-events="none" width="100%" height="100%" requiredFeatures="http://www.w3.org/TR/SVG11/feature#Extensibility" style="overflow: visible; text-align: left;"><div xmlns="http://www.w3.org/1999/xhtml" style="display: flex; align-items: unsafe center; justify-content: unsafe center; width: 1px; height: 1px; padding-top: 305px; margin-left: 515px;"><div data-drawio-colors="color: rgb(0, 0, 0); " style="box-sizing: border-box; font-size: 0px; text-align: center;"><div style="display: inline-block; font-size: 12px; font-family: Helvetica; color: rgb(0, 0, 0); line-height: 1.2; pointer-events: all; white-space: nowrap;">«interface»<br /><b>Remoting <br /></b><b style="border-color: var(--border-color);">(Function Binding)</b><b><br />Agent <br /><br /></b></div></div></div></foreignObject><text x="515" y="309" fill="rgb(0, 0, 0)" font-family="Helvetica" font-size="12px" text-anchor="middle">«interface»...</text></switch></g><path d="M 515 270 L 515 256.37" fill="none" stroke="rgb(0, 0, 0)" stroke-miterlimit="10" pointer-events="stroke"/><path d="M 515 251.12 L 518.5 258.12 L 515 256.37 L 511.5 258.12 Z" fill="rgb(0, 0, 0)" stroke="rgb(0, 0, 0)" stroke-miterlimit="10" pointer-events="all"/><path d="M 360 237.5 L 405 237.5 L 405 305 L 453.63 305" fill="none" stroke="rgb(0, 0, 0)" stroke-miterlimit="10" pointer-events="stroke"/><path d="M 458.88 305 L 451.88 308.5 L 453.63 305 L 451.88 301.5 Z" fill="rgb(0, 0, 0)" stroke="rgb(0, 0, 0)" stroke-miterlimit="10" pointer-events="all"/><g transform="translate(-0.5 -0.5)"><switch><foreignObject pointer-events="none" width="100%" height="100%" requiredFeatures="http://www.w3.org/TR/SVG11/feature#Extensibility" style="overflow: visible; text-align: left;"><div xmlns="http://www.w3.org/1999/xhtml" style="display: flex; align-items: unsafe center; justify-content: unsafe center; width: 1px; height: 1px; padding-top: 320px; margin-left: 401px;"><div data-drawio-colors="color: rgb(0, 0, 0); background-color: rgb(255, 255, 255); " style="box-sizing: border-box; font-size: 0px; text-align: center;"><div style="display: inline-block; font-size: 11px; font-family: Helvetica; color: rgb(0, 0, 0); line-height: 1.2; pointer-events: all; background-color: rgb(255, 255, 255); white-space: nowrap;">KA-BIND-F</div></div></div></foreignObject><text x="401" y="323" fill="rgb(0, 0, 0)" font-family="Helvetica" font-size="11px" text-anchor="middle">KA-BIND-F</text></switch></g></g><switch><g requiredFeatures="http://www.w3.org/TR/SVG11/feature#Extensibility"/><a transform="translate(0,-5)" xlink:href="https://www.drawio.com/doc/faq/svg-export-text-problems" target="_blank"><text text-anchor="middle" font-size="10px" x="50%" y="100%">Text is not SVG - cannot display</text></a></switch></svg>
